remix/Editor/bold.svg

<svg viewBox="0 0 24 24" fill="currentColor" xmlns="http://www.w3.org/2000/svg"><path d="M8 11H12.5C13.8807 11 15 9.88071 15 8.5C15 7.11929 13.8807 6 12.5 6H8V11ZM18 15.5C18 17.9853 15.9853 20 13.5 20H6V4H12.5C14.9853 4 17 6.01472 17 8.5C17 9.70431 16.5269 10.7981 15.7564 11.6058C17.0979 12.3847 18 13.837 18 15.5ZM8 13V18H13.5C14.8807 18 16 16.8807 16 15.5C16 14.1193 14.8807 13 13.5 13H8Z"/></svg>

<svg viewBox="0 0 24 24" xmlns="http://www.w3.org/2000/svg"><path fill="none" d="M0 0h24v24H0Z"/><path d="M8 11h4.5v0c1.38 0 2.5-1.12 2.5-2.5C15 7.11 13.88 6 12.5 6H8v5Zm10 4.5v0c0 2.48-2.02 4.5-4.5 4.5H6V4h6.5v0c2.48 0 4.49 2.01 4.49 4.5 -.01 1.15-.45 2.26-1.25 3.1v0c1.38.8 2.24 2.28 2.24 3.89ZM8 13v5h5.5v0c1.38 0 2.5-1.12 2.5-2.5 0-1.39-1.12-2.5-2.5-2.5H8Z"/></svg>
